img/Article/Dev-Think-4Ways2AIWorld/Paradigm 2.svg

<svg xmlns="http://www.w3.org/2000/svg" width="239pt" height="728" viewBox="0 0 239.47 545.6"><g class="graph" transform="translate(4 541.6)"><path fill="#fff" d="M-4 4v-545.6h239.47V4H-4z"/><g class="node"><path fill="khaki" stroke="#000" d="M231.47-537.6H97.65v41.6h133.82v-41.6z"/><text text-anchor="middle" x="164.56" y="-521" font-family="Times,serif" font-size="14">游戏世界</text><text text-anchor="middle" x="164.56" y="-504.2" font-family="Times,serif" font-size="14">(经济, 势力, 玩家行为等)</text></g><g class="node"><path fill="#e0ffff" stroke="#000" d="M167.06-448h-79v36h79v-36z"/><text text-anchor="middle" x="127.56" y="-425.8" font-family="Times,serif" font-size="14">数据收集模块</text></g><g class="edge"><path fill="none" stroke="#000" d="M155.79-495.7c-4.81 11.02-10.84 24.86-16.1 36.9"/><path stroke="#000" d="m142.95-457.52-7.2 7.76.79-10.56 6.41 2.8z"/><text text-anchor="middle" x="163.42" y="-469" font-family="Times,serif" font-size="10"> 实时状态</text></g><g class="node"><path fill="salmon" stroke="#000" d="M144.41-364H42.71v41.6h101.7V-364z"/><text text-anchor="middle" x="93.56" y="-347.4" font-family="Times,serif" font-size="14">AI &quot;大思考&quot; 引擎</text><text text-anchor="middle" x="93.56" y="-330.6" font-family="Times,serif" font-size="14">(周期性运行)</text></g><g class="edge"><path fill="none" stroke="#000" d="M120.68-411.84c-4.26 10.63-9.86 24.59-14.86 37.06"/><path stroke="#000" d="m109.16-373.7-6.97 7.98.47-10.59 6.5 2.61z"/><text text-anchor="middle" x="128.85" y="-385" font-family="Times,serif" font-size="10"> 汇总数据</text></g><g class="node"><path fill="#ffb6c1" stroke="#000" d="M89.12-274.4H0v41.6h89.12v-41.6z"/><text text-anchor="middle" x="44.56" y="-257.8" font-family="Times,serif" font-size="14">生成NPC/势力</text><text text-anchor="middle" x="44.56" y="-241" font-family="Times,serif" font-size="14">新目标与策略</text></g><g class="edge"><path fill="none" stroke="#000" d="M82.44-322.32c-6.22 11.12-14.1 25.21-21.06 37.65"/><path stroke="#000" d="m64.48-283.04-7.93 7.02 1.82-10.44 6.11 3.42z"/><text text-anchor="middle" x="92" y="-295.4" font-family="Times,serif" font-size="10"> 分析与决策</text></g><g class="node"><path fill="#d3d3d3" stroke="#000" d="m76.56-184.8-68.5 41.6 68.5 41.6 68.5-41.6-68.5-41.6z"/><text text-anchor="middle" x="76.56" y="-147.4" font-family="Times,serif" font-size="14">开发者审核</text><text text-anchor="middle" x="76.56" y="-130.6" font-family="Times,serif" font-size="14">与内容植入</text></g><g class="edge"><path fill="none" stroke="#000" d="M50.51-232.46c3.57 12.12 8.28 28.06 12.71 43.05"/><path stroke="#000" d="m66.47-190.75-.53 10.58-6.19-8.6 6.72-1.98z"/><text text-anchor="middle" x="80.17" y="-205.8" font-family="Times,serif" font-size="10"> 提交AI建议</text></g><g class="edge"><path fill="none" stroke="gray" stroke-dasharray="5,2" d="M94-174.4c4.44-8.9 8.75-18.81 11.56-28.4 11.28-38.45 7.78-49.59 10-89.6.3-5.33 1.39-6.85 0-12-.7-2.6-1.63-5.2-2.71-7.76"/><path fill="gray" stroke="gray" d="m109.81-310.42-1.37-10.51 7.62 7.36-6.25 3.15z"/><text text-anchor="middle" x="137.3" y="-256.6" font-family="Times,serif" font-size="10"> (可选)反馈/</text><text text-anchor="middle" x="137.3" y="-244.6" font-family="Times,serif" font-size="10">拒绝部分建议</text></g><g class="node"><path fill="#90ee90" stroke="#000" d="M217.09-41.6H84.03V0h133.06v-41.6z"/><text text-anchor="middle" x="150.56" y="-25" font-family="Times,serif" font-size="14">内容更新</text><text text-anchor="middle" x="150.56" y="-8.2" font-family="Times,serif" font-size="14">(激活事件, 修改NPC等)</text></g><g class="edge"><path fill="none" stroke="#000" d="M94.85-112.44c11.42 18.57 26.05 42.38 37.45 60.93"/><path stroke="#000" d="m135.22-53.45 2.25 10.36-8.21-6.69 5.96-3.67z"/><text text-anchor="middle" x="148.02" y="-74.6" font-family="Times,serif" font-size="10"> 批准/修改后</text><text text-anchor="middle" x="148.02" y="-62.6" font-family="Times,serif" font-size="10">转化为内容</text></g><g class="edge"><path fill="none" stroke="#000" d="M163.93-41.71c14.21-23.12 34.63-62.91 34.63-100.49V-431c0-19.26-7.64-39.32-15.69-55.1"/><path stroke="#000" d="m180.03-484-1.7-10.46 7.85 7.12-6.15 3.34z"/><text text-anchor="middle" x="214.81" y="-295.4" font-family="Times,serif" font-size="10"> 应用变更</text></g></g></svg>

<svg xmlns="http://www.w3.org/2000/svg" xmlns:xlink="http://www.w3.org/1999/xlink" width="239pt" height="546pt" viewBox="0.00 0.00 239.47 545.60">
<g id="graph0" class="graph" transform="scale(1 1) rotate(0) translate(4 541.6)">
<title>AI_MUD_Cycle</title>
<polygon fill="white" stroke="none" points="-4,4 -4,-541.6 235.47,-541.6 235.47,4 -4,4"/>
<!-- World -->
<g id="node1" class="node">
<title>World</title>
<polygon fill="khaki" stroke="black" points="231.47,-537.6 97.65,-537.6 97.65,-496 231.47,-496 231.47,-537.6"/>
<text text-anchor="middle" x="164.56" y="-521" font-family="Times,serif" font-size="14.00">游戏世界</text>
<text text-anchor="middle" x="164.56" y="-504.2" font-family="Times,serif" font-size="14.00">(经济, 势力, 玩家行为等)</text>
</g>
<!-- Data -->
<g id="node2" class="node">
<title>Data</title>
<polygon fill="lightcyan" stroke="black" points="167.06,-448 88.06,-448 88.06,-412 167.06,-412 167.06,-448"/>
<text text-anchor="middle" x="127.56" y="-425.8" font-family="Times,serif" font-size="14.00">数据收集模块</text>
</g>
<!-- World&#45;&gt;Data -->
<g id="edge1" class="edge">
<title>World-&gt;Data</title>
<path fill="none" stroke="black" d="M155.79,-495.7C150.98,-484.68 144.95,-470.84 139.69,-458.8"/>
<polygon fill="black" stroke="black" points="142.95,-457.52 135.75,-449.76 136.54,-460.32 142.95,-457.52"/>
<text text-anchor="middle" x="163.42" y="-469" font-family="Times,serif" font-size="10.00"> 实时状态</text>
</g>
<!-- AI -->
<g id="node3" class="node">
<title>AI</title>
<polygon fill="salmon" stroke="black" points="144.41,-364 42.71,-364 42.71,-322.4 144.41,-322.4 144.41,-364"/>
<text text-anchor="middle" x="93.56" y="-347.4" font-family="Times,serif" font-size="14.00">AI "大思考" 引擎</text>
<text text-anchor="middle" x="93.56" y="-330.6" font-family="Times,serif" font-size="14.00">(周期性运行)</text>
</g>
<!-- Data&#45;&gt;AI -->
<g id="edge2" class="edge">
<title>Data-&gt;AI</title>
<path fill="none" stroke="black" d="M120.68,-411.84C116.42,-401.21 110.82,-387.25 105.82,-374.78"/>
<polygon fill="black" stroke="black" points="109.16,-373.7 102.19,-365.72 102.66,-376.31 109.16,-373.7"/>
<text text-anchor="middle" x="128.85" y="-385" font-family="Times,serif" font-size="10.00"> 汇总数据</text>
</g>
<!-- Strategy -->
<g id="node4" class="node">
<title>Strategy</title>
<polygon fill="lightpink" stroke="black" points="89.12,-274.4 0,-274.4 0,-232.8 89.12,-232.8 89.12,-274.4"/>
<text text-anchor="middle" x="44.56" y="-257.8" font-family="Times,serif" font-size="14.00">生成NPC/势力</text>
<text text-anchor="middle" x="44.56" y="-241" font-family="Times,serif" font-size="14.00">新目标与策略</text>
</g>
<!-- AI&#45;&gt;Strategy -->
<g id="edge3" class="edge">
<title>AI-&gt;Strategy</title>
<path fill="none" stroke="black" d="M82.44,-322.32C76.22,-311.2 68.34,-297.11 61.38,-284.67"/>
<polygon fill="black" stroke="black" points="64.48,-283.04 56.55,-276.02 58.37,-286.46 64.48,-283.04"/>
<text text-anchor="middle" x="92" y="-295.4" font-family="Times,serif" font-size="10.00"> 分析与决策</text>
</g>
<!-- Review -->
<g id="node5" class="node">
<title>Review</title>
<polygon fill="lightgrey" stroke="black" points="76.56,-184.8 8.06,-143.2 76.56,-101.6 145.06,-143.2 76.56,-184.8"/>
<text text-anchor="middle" x="76.56" y="-147.4" font-family="Times,serif" font-size="14.00">开发者审核</text>
<text text-anchor="middle" x="76.56" y="-130.6" font-family="Times,serif" font-size="14.00">与内容植入</text>
</g>
<!-- Strategy&#45;&gt;Review -->
<g id="edge4" class="edge">
<title>Strategy-&gt;Review</title>
<path fill="none" stroke="black" d="M50.51,-232.46C54.08,-220.34 58.79,-204.4 63.22,-189.41"/>
<polygon fill="black" stroke="black" points="66.47,-190.75 65.94,-180.17 59.75,-188.77 66.47,-190.75"/>
<text text-anchor="middle" x="80.17" y="-205.8" font-family="Times,serif" font-size="10.00"> 提交AI建议</text>
</g>
<!-- Review&#45;&gt;AI -->
<g id="edge7" class="edge">
<title>Review-&gt;AI</title>
<path fill="none" stroke="grey" stroke-dasharray="5,2" d="M94,-174.4C98.44,-183.3 102.75,-193.21 105.56,-202.8 116.84,-241.25 113.34,-252.39 115.56,-292.4 115.86,-297.73 116.95,-299.25 115.56,-304.4 114.86,-307 113.93,-309.6 112.85,-312.16"/>
<polygon fill="grey" stroke="grey" points="109.81,-310.42 108.44,-320.93 116.06,-313.57 109.81,-310.42"/>
<text text-anchor="middle" x="137.3" y="-256.6" font-family="Times,serif" font-size="10.00"> (可选)反馈/</text>
<text text-anchor="middle" x="137.3" y="-244.6" font-family="Times,serif" font-size="10.00">拒绝部分建议</text>
</g>
<!-- Update -->
<g id="node6" class="node">
<title>Update</title>
<polygon fill="lightgreen" stroke="black" points="217.09,-41.6 84.03,-41.6 84.03,0 217.09,0 217.09,-41.6"/>
<text text-anchor="middle" x="150.56" y="-25" font-family="Times,serif" font-size="14.00">内容更新</text>
<text text-anchor="middle" x="150.56" y="-8.2" font-family="Times,serif" font-size="14.00">(激活事件, 修改NPC等)</text>
</g>
<!-- Review&#45;&gt;Update -->
<g id="edge5" class="edge">
<title>Review-&gt;Update</title>
<path fill="none" stroke="black" d="M94.85,-112.44C106.27,-93.87 120.9,-70.06 132.3,-51.51"/>
<polygon fill="black" stroke="black" points="135.22,-53.45 137.47,-43.09 129.26,-49.78 135.22,-53.45"/>
<text text-anchor="middle" x="148.02" y="-74.6" font-family="Times,serif" font-size="10.00"> 批准/修改后</text>
<text text-anchor="middle" x="148.02" y="-62.6" font-family="Times,serif" font-size="10.00">转化为内容</text>
</g>
<!-- Update&#45;&gt;World -->
<g id="edge6" class="edge">
<title>Update-&gt;World</title>
<path fill="none" stroke="black" d="M163.93,-41.71C178.14,-64.83 198.56,-104.62 198.56,-142.2 198.56,-431 198.56,-431 198.56,-431 198.56,-450.26 190.92,-470.32 182.87,-486.1"/>
<polygon fill="black" stroke="black" points="180.03,-484 178.33,-494.46 186.18,-487.34 180.03,-484"/>
<text text-anchor="middle" x="214.81" y="-295.4" font-family="Times,serif" font-size="10.00"> 应用变更</text>
</g>
</g>
</svg>
